icons/communication/call-plus-24.svg

<svg width="25" height="24" viewBox="0 0 25 24" fill="none" xmlns="http://www.w3.org/2000/svg">
<path d="M18.0006 1C18.4148 1 18.7506 1.33579 18.7506 1.75V4.75H22.2506C22.6648 4.75 23.0006 5.08579 23.0006 5.5C23.0006 5.91421 22.6648 6.25 22.2506 6.25H18.7506V9.75C18.7506 10.1642 18.4148 10.5 18.0006 10.5C17.5864 10.5 17.2506 10.1642 17.2506 9.75V6.25H13.7506C13.3364 6.25 13.0006 5.91421 13.0006 5.5C13.0006 5.08579 13.3364 4.75 13.7506 4.75H17.2506V1.75C17.2506 1.33579 17.5864 1 18.0006 1Z" fill="black"/>
<path fill-rule="evenodd" clip-rule="evenodd" d="M3.96849 2.87559C5.13422 1.70986 7.02396 1.70986 8.18969 2.87559L9.50174 4.18764C10.4761 5.162 10.4222 6.69819 9.40674 7.7137L8.49144 8.62788C8.4742 8.64522 8.46373 8.66618 8.4599 8.6847C8.45629 8.70216 8.45904 8.71286 8.46175 8.719C9.07839 10.1175 10.0107 11.5049 11.2541 12.7483C12.4978 13.9919 13.8852 14.9253 15.2837 15.543C15.2899 15.5457 15.3006 15.5483 15.3178 15.5448C15.3364 15.5409 15.3572 15.5307 15.3745 15.5134L16.3834 14.5034C17.3304 13.5547 18.8673 13.5554 19.8149 14.5029L21.1258 15.8139C22.2915 16.9796 22.2915 18.8693 21.1258 20.0351L20.3983 20.7626C19.3843 21.7765 17.9347 22.1859 16.5214 21.9192C13.433 21.3354 10.1036 19.5552 7.27543 16.727C4.44723 13.8988 2.66714 10.5698 2.08326 7.48138C1.81661 6.06813 2.22593 4.61815 3.23982 3.60426L3.96849 2.87559ZM5.02915 3.93625C5.60909 3.35631 6.54909 3.35631 7.12903 3.93625L8.44108 5.2483C8.77652 5.58375 8.83038 6.16873 8.34608 6.65303L7.4311 7.56691C6.98619 8.01182 6.81674 8.70641 7.08934 9.32439C7.78251 10.8964 8.82179 12.4373 10.1935 13.809C11.565 15.1805 13.106 16.2209 14.6779 16.9153C15.296 17.188 15.9906 17.0186 16.4356 16.5736L17.4449 15.5632C17.8055 15.202 18.392 15.2013 18.7542 15.5636L20.0652 16.8745C20.6451 17.4545 20.6451 18.3945 20.0652 18.9744L19.3376 19.702C18.6953 20.3443 17.7557 20.6256 16.7998 20.4453C14.0477 19.925 10.9818 18.3121 8.33609 15.6664C5.69044 13.0207 4.0775 9.95477 3.55715 7.20274C3.37687 6.24681 3.65818 5.30722 4.30048 4.66492L5.02915 3.93625Z" fill="black"/>
</svg>

<svg xmlns="http://www.w3.org/2000/svg" width="25" height="24"><path d="M18 1a.75.75 0 01.75.75v3h3.5a.75.75 0 010 1.5h-3.5v3.5a.75.75 0 01-1.5 0v-3.5h-3.5a.75.75 0 010-1.5h3.5v-3A.75.75 0 0118 1z"/><path fill-rule="evenodd" d="M3.968 2.876a2.985 2.985 0 014.222 0l1.312 1.312c.974.974.92 2.51-.095 3.526l-.916.914a.116.116 0 00-.031.057.055.055 0 00.002.034c.616 1.399 1.549 2.786 2.792 4.03 1.244 1.243 2.631 2.176 4.03 2.794a.056.056 0 00.034.002.115.115 0 00.056-.032l1.01-1.01a2.426 2.426 0 013.43 0l1.312 1.31a2.985 2.985 0 010 4.222l-.728.728c-1.014 1.013-2.463 1.423-3.877 1.156-3.088-.584-6.417-2.364-9.246-5.192-2.828-2.828-4.608-6.157-5.192-9.246-.266-1.413.143-2.863 1.157-3.877l.728-.728zm1.061 1.06c.58-.58 1.52-.58 2.1 0l1.312 1.312c.336.336.39.92-.095 1.405l-.915.914a1.587 1.587 0 00-.342 1.757c.694 1.572 1.733 3.113 3.104 4.485 1.372 1.372 2.913 2.412 4.485 3.106a1.587 1.587 0 001.758-.341l1.009-1.01a.925.925 0 011.31 0l1.31 1.31c.58.58.58 1.52 0 2.1l-.727.728c-.643.642-1.582.924-2.538.743-2.752-.52-5.818-2.133-8.464-4.779-2.646-2.645-4.259-5.711-4.779-8.463-.18-.956.101-1.896.743-2.538l.73-.729z"/></svg>
